images/void.svg

<svg xmlns="http://www.w3.org/2000/svg" viewBox="0 0 85 103.5" enable-background="new 0 0 85 103.5"><style type="text/css">.st0{fill:none;stroke:#000000;stroke-width:0.3795;stroke-miterlimit:10;} .st1{fill:#27A8DE;stroke:#000000;stroke-width:0.3795;stroke-miterlimit:10;} .st2{fill:#6CB5E2;stroke:#000000;stroke-width:0.3795;stroke-miterlimit:10;} .st3{fill:none;stroke:#000000;stroke-width:0.3795;stroke-linecap:round;stroke-miterlimit:10;} .st4{fill:#FFFFFF;stroke:#000000;stroke-width:0.3795;stroke-miterlimit:10;} .st5{fill:#1C7DA6;stroke:#000000;stroke-width:0.3795;stroke-miterlimit:10;}</style><path class="st0" d="M29.1 37.7c-1.9-.3-2.7-1.9-2.9-3-.5-.1-.9-.1-1.2-.1.3 1.3.9 3.4 2.1 3.8.9.4 2-.1 2.9-.6-.3 0-.6 0-.9-.1zm21.7 5.4c-1.1-.7-2.3-1.4-3.5-2-1.1-.6-2.2-1.1-3.3-1.6-.4-.2-.8-.4-1.3-.5l-1-.4c.1 1.2.4 4 2.3 5.6 2.1 1.9 6.5.9 8-.2-.3-.3-.8-.6-1.2-.9z"/><path class="st1" d="M59.1 43.8s3-13 4.6-16.4c1-2.1 1-3.9.9-5-.1-.7-.2-1.1-.2-1.1s-9.3-7.9-18.1-8.2c0 0-5.2-4.2-13.1-3.9 0 0-.2.3-.6 1-1.6 2.8-6.3 10.8-6.2 15.2 0 0-3.5 1.8-4.9 3.1-.3.2-.5.5-.5.7-.3 1.2 0 4.6 0 4.6s-.2 0-.6-.1c-.4 0-.9-.1-1.5-.1-1.6 0-3.4.3-3.8 1.8-.7 2.7 4.5 11.2 4.5 11.2s-1.2 2.9-2.8 6.1c-1.3 2.7-2.9 5.6-4 6.9-2.4 2.8-2 6.9 2 10.9 1.8 1.8 4.1 4.1 7.3 6 3.9 2.3 9.2 3.9 16.1 2.4 12.4-2.6 13.5-14.6 13.5-14.6s0-.1.1-.4c0-.2.1-.5.2-.8.3-1.1.7-2.8 1.1-4.5.2 0 .4 0 .6-.1 5.5-.8 5.5-4.2 5.1-4.5-.4-.3-1.3-1.6-.6-2.2.6-.6 2.4-2.3 2.4-3.8 3-2.1 7.3-3.9 13.7-3.3-.2.1-5.4-3.5-15.2-.9zm-32.9-9.1c.5.1 1.1.1 1.7.2.7.1 1.5.2 2.4.4.9.2 1.9.4 3 .6l1.3.3c-.9.5-2.7 1.5-4.6 1.5-.9.5-2 1-2.9.6-1.2-.5-1.8-2.6-2.1-3.8.3.1.7.1 1.2.2zm6.8 12c-.1 1-.4 2.8-1 3.4-.5.5-1.2.4-1.7.3v.4c-.1 1.1-1.2 1.4-3.1 1.4-1.9.1-1.1-7-1.1-7-.8-.1-1.6-.2-2.1-.2.1 0 1.1-.2 2.4-.3.7-.1 1.4-.1 2.2-.1h.3c.8 0 1.6.2 2.3.4l1.6.6c2 .6 3.9 1.2 5 2.8-1.6-.7-3.2-1.3-4.8-1.7zm11.1-2.5c-1.8-1.6-2.2-4.4-2.3-5.6l1 .4c.4.2.8.3 1.3.5 1.1.5 2.2 1 3.3 1.6 1.2.6 2.3 1.3 3.5 2l1.2.9c-1.5 1.1-5.9 2-8 .2z"/><path class="st0" d="M33 46.7c-.1 1-.4 2.8-1 3.4-.5.5-1.2.4-1.7.3-.1-1.1-.6-3.4-.9-4.6 1.1.2 2.3.5 3.6.9zm21.3-1.4s5.4.7 6 2.3c.1.2.1.4.1.6"/><path class="st1" d="M39.2 100l-12.8-1.5c-2.6-.3-4.6-2.5-4.7-5.1-.1-5.1.2-12.9.3-16.8 3.9 2.3 9.2 3.9 16.1 2.4 12.4-2.6 13.5-14.6 13.5-14.6s0-.1.1-.4c0-.2.1-.5.2-.8.1.4.1.7.1 1.2.6 6.3-1.2 19.1-2.5 27.8-.9 4.9-5.4 8.4-10.3 7.8z"/><path class="st2" d="M76.7 48.6c-.8.3-2.1 1.7-3.5 4.6-1.5 2.8-9.5 6.8-11.1 7-1.6.2-2.2 3.3-1.7 5.6.5 2.3-1.2 3.3-3.3 2.8-1.2-.3-3.4-2.3-5.2-4.1l-.1-1.2c.3-1.1.7-2.8 1.1-4.5.2 0 .4 0 .6-.1 5.5-.8 5.5-4.2 5.1-4.5-.4-.3-1.3-1.6-.6-2.2.6-.6 2.4-2.3 2.4-3.8 3-2.1 7.3-3.9 13.7-3.3 0 0 1.1.9 2.3 1.5 1.1.5 1.1 1.9.3 2.2z"/><path class="st1" d="M21.5 28.5c-.3.2-.5.5-.5.7-.3 1.2 0 4.6 0 4.6s-.2 0-.6-.1c-.4 0-.9-.1-1.5-.1-.1-1.9-.7-4.5-2.4-7.4-1.5-2.2-1.5-4.4-1.3-5.6.1-.7.2-1.1.2-1.1.1.9 2.1 3.5 3 4.5 1 1 3.1 4.5 3.1 4.5z"/><path class="st2" d="M19.5 46.7s-1.2 2.9-2.8 6.1c-1.6.7-3.9 1.6-4.9 1.5-1.6-.1-3.7-.4-3.2-3.7.4-3.4 3.4-4.6 3-7-.4-2.6-2.1-8.6-2.1-8.6s-3.7-8.1 5.7-14.4c-.2 1.2-.2 3.4 1.2 5.7 1.7 2.8 2.3 5.5 2.4 7.4-1.6 0-3.4.3-3.8 1.8-.7 2.6 4.5 11.2 4.5 11.2z"/><path class="st3" d="M15.6 48.8s2.5-1.5 3.3-3m-4.2-13s.9.2 1.4 1.3m-1-4.7s2.1 2.4 2.4 4.4m42.9 18.1s4.1-1.2 7.4.6m-8.3-1.2s-2.8-1.6 10.8-2.4m-43.6 12.8s.4 3.4 3.5 4.9m-4.8-8.9s3.9 8.6 13.9 8.8m0-47s2.8 5.2 8.5 7.6m-13.8-4.9s7 5.9 16.6 7.5m-20.3-3.9s12.8 1.9 20.7 9.1m-13.3 13.4l.3.1c6.7 3.1 10.3 4.7 13.3 3.1l4-3.5m-31.3-3c-.8-.1-1.2-.1-1.2-.1v-6.9m30.7 9.2s1.7-.1 3.4 2.4m-38.6-12.5s4.9.5 6.3 1.8m-.6 6.1"/><path class="st4" d="M30.3 50.7c-.1 1.1-1.2 1.4-3.1 1.4-1.9.1-1.1-7-1.1-7 .7.1 1.6.2 2.5.4.3 0 .5.1.8.2.3 1.1.8 3.4.9 4.6v.4z"/><path class="st5" d="M37.7 48.3c-1.5-.7-3.2-1.2-4.7-1.7-1.3-.4-2.5-.6-3.6-.9l-.8-.2c-.9-.2-1.7-.3-2.5-.4-.8 0-1.6-.1-2.1-.1.1 0 1.1-.2 2.4-.3.7-.1 1.4-.1 2.2-.1h.3c.8 0 1.6.2 2.3.4l1.6.6c2 .6 3.9 1.1 4.9 2.7z"/><path class="st4" d="M33 46.7c-.1 1-.4 2.8-1 3.4-.5.5-1.2.4-1.7.3-.1-1.1-.6-3.4-.9-4.6 1.1.2 2.3.5 3.6.9z"/><path class="st3" d="M37.7 32.9s-1.2 1-1.1 2.6m3.3-3.6s-2.3 1.6-1.7 5.2m-5.8 4.2s1.7 3.3 3.3 2.6c1.6-.8 4.3-3 4.7-1.8"/><path class="st2" d="M30 37.8c-.9.5-2 1-2.9.6-1.2-.5-1.8-2.6-2.1-3.8.3 0 .7.1 1.2.1.2 1.1 1 2.7 2.9 3 .3.1.6.1.9.1zm22.1 6.2c-1.5 1.1-5.8 2.1-8 .2-1.8-1.6-2.2-4.4-2.3-5.6l1 .4c.4.2.8.3 1.3.5 1.1.5 2.2 1 3.3 1.6 1.2.6 2.3 1.3 3.5 2 .3.3.8.6 1.2.9z"/><path class="st4" d="M34.6 36.3c-.9.5-2.7 1.5-4.6 1.5-.3 0-.6 0-.9-.1-1.9-.3-2.7-1.9-2.9-3 .5.1 1.1.1 1.7.2.7.1 1.5.2 2.4.4.9.2 1.9.4 3 .6.4.2.9.3 1.3.4z"/><path class="st3" d="M41.8 38.6c-2.5-1-5-1.7-7.2-2.3m18.1 8.1l-.6-.5m-28.1-9.4s.4 0 1 .1"/><path d="M33.3 36c-.2.5-.6 1-1.5 1.1-1.3.2-1.5-1-1.4-1.7.9.1 1.8.3 2.9.6z"/><path class="st3" d="M31.8 42s-2.2-.9-.6-2.7c1.6-1.8 3.4-.8 3.4-.8s-1.2.5-1.1 1m4.7 1.4s2.1-2.4 2.8-1c.7 1.4.5 4.6-.4 4.3l-1.4-1"/><path class="st3" d="M37.2 3.2l.3.1c-.2 0-.3-.1-.3-.1z"/><path class="st5" d="M65.2 20.1s1.2 2.4 1.3 3.3c0 0-.9-.5-1.8-.9-.1-.7-.2-1.1-.2-1.1s-9.3-7.9-18.1-8.2c0 0-5.2-4.2-13.1-3.9 0 0-.2.3-.6 1-1.2-.3-2.8-.7-2.4-1.3.7-.9 2.3-1 2.3-1l-2-.7s.7-1 1.8-.9c1 .1-1.5-1.2-1.5-1.2s3.9-.2 4.8.3c0 0-.3-1.1-.8-1.1s2.3 0 2.8.3c0 0 .4-1.1-.2-1.5 1 .3 4.1 1.5 4.6 2.4 0 0 0-1 .2-1.3 0 0 2.5 2.1 2.8 2.8l-1-3.7s2.4.9 3.7 4.3l.9-3.2s.7 1 .8 3.6c0 0 1.3-2.3 1.9-2.6l-1 4.8s3.2-3.4 4.4-3.6l-1.8 3.6 6-.6s-.2.7-1.4 1.2c0 0 2.6.3 2.8.7l-4.1 1.9s6.2.7 7.5 1.6l-2.1.6s5.3 3 5.2 5l-1.7-.6z"/><path class="st4" d="M50.8 43.1c-.7.7-1.9 1.2-4.3.5-3.7-1.1-3.8-3.5-3.7-4.6.4.2.8.3 1.3.5 1.1.5 2.2 1 3.3 1.6 1.1.6 2.3 1.3 3.4 2z"/><path d="M47.3 41.1c-.5.6-1.2 1.1-2.2.8-1.3-.4-1.3-1.6-1.1-2.4 1.2.5 2.3 1 3.3 1.6z"/></svg>

<svg xmlns="http://www.w3.org/2000/svg" viewBox="0 0 85 103.5" enable-background="new 0 0 85 103.5"><style type="text/css">.st0{fill:none;stroke:#000000;stroke-width:0.3795;stroke-miterlimit:10;} .st1{fill:#27A8DE;stroke:#000000;stroke-width:0.3795;stroke-miterlimit:10;} .st2{fill:#6CB5E2;stroke:#000000;stroke-width:0.3795;stroke-miterlimit:10;} .st3{fill:none;stroke:#000000;stroke-width:0.3795;stroke-linecap:round;stroke-miterlimit:10;} .st4{fill:#FFFFFF;stroke:#000000;stroke-width:0.3795;stroke-miterlimit:10;} .st5{fill:#1C7DA6;stroke:#000000;stroke-width:0.3795;stroke-miterlimit:10;}</style><path class="st0" d="M29.1 37.7c-1.9-.3-2.7-1.9-2.9-3-.5-.1-.9-.1-1.2-.1.3 1.3.9 3.4 2.1 3.8.9.4 2-.1 2.9-.6-.3 0-.6 0-.9-.1zm21.7 5.4c-1.1-.7-2.3-1.4-3.5-2-1.1-.6-2.2-1.1-3.3-1.6-.4-.2-.8-.4-1.3-.5l-1-.4c.1 1.2.4 4 2.3 5.6 2.1 1.9 6.5.9 8-.2-.3-.3-.8-.6-1.2-.9z"/><path class="st1" d="M59.1 43.8s3-13 4.6-16.4c1-2.1 1-3.9.9-5-.1-.7-.2-1.1-.2-1.1s-9.3-7.9-18.1-8.2c0 0-5.2-4.2-13.1-3.9 0 0-.2.3-.6 1-1.6 2.8-6.3 10.8-6.2 15.2 0 0-3.5 1.8-4.9 3.1-.3.2-.5.5-.5.7-.3 1.2 0 4.6 0 4.6s-.2 0-.6-.1c-.4 0-.9-.1-1.5-.1-1.6 0-3.4.3-3.8 1.8-.7 2.7 4.5 11.2 4.5 11.2s-1.2 2.9-2.8 6.1c-1.3 2.7-2.9 5.6-4 6.9-2.4 2.8-2 6.9 2 10.9 1.8 1.8 4.1 4.1 7.3 6 3.9 2.3 9.2 3.9 16.1 2.4 12.4-2.6 13.5-14.6 13.5-14.6s0-.1.1-.4c0-.2.1-.5.2-.8.3-1.1.7-2.8 1.1-4.5.2 0 .4 0 .6-.1 5.5-.8 5.5-4.2 5.1-4.5-.4-.3-1.3-1.6-.6-2.2.6-.6 2.4-2.3 2.4-3.8 3-2.1 7.3-3.9 13.7-3.3-.2.1-5.4-3.5-15.2-.9zm-32.9-9.1c.5.1 1.1.1 1.7.2.7.1 1.5.2 2.4.4.9.2 1.9.4 3 .6l1.3.3c-.9.5-2.7 1.5-4.6 1.5-.9.5-2 1-2.9.6-1.2-.5-1.8-2.6-2.1-3.8.3.1.7.1 1.2.2zm6.8 12c-.1 1-.4 2.8-1 3.4-.5.5-1.2.4-1.7.3v.4c-.1 1.1-1.2 1.4-3.1 1.4-1.9.1-1.1-7-1.1-7-.8-.1-1.6-.2-2.1-.2.1 0 1.1-.2 2.4-.3.7-.1 1.4-.1 2.2-.1h.3c.8 0 1.6.2 2.3.4l1.6.6c2 .6 3.9 1.2 5 2.8-1.6-.7-3.2-1.3-4.8-1.7zm11.1-2.5c-1.8-1.6-2.2-4.4-2.3-5.6l1 .4c.4.2.8.3 1.3.5 1.1.5 2.2 1 3.3 1.6 1.2.6 2.3 1.3 3.5 2l1.2.9c-1.5 1.1-5.9 2-8 .2z"/><path class="st0" d="M33 46.7c-.1 1-.4 2.8-1 3.4-.5.5-1.2.4-1.7.3-.1-1.1-.6-3.4-.9-4.6 1.1.2 2.3.5 3.6.9zM54.3 45.3s5.4.7 6 2.3c.1.2.1.4.1.6"/><path class="st1" d="M39.2 100l-12.8-1.5c-2.6-.3-4.6-2.5-4.7-5.1-.1-5.1.2-12.9.3-16.8 3.9 2.3 9.2 3.9 16.1 2.4 12.4-2.6 13.5-14.6 13.5-14.6s0-.1.1-.4c0-.2.1-.5.2-.8.1.4.1.7.1 1.2.6 6.3-1.2 19.1-2.5 27.8-.9 4.9-5.4 8.4-10.3 7.8z"/><path class="st2" d="M76.7 48.6c-.8.3-2.1 1.7-3.5 4.6-1.5 2.8-9.5 6.8-11.1 7-1.6.2-2.2 3.3-1.7 5.6.5 2.3-1.2 3.3-3.3 2.8-1.2-.3-3.4-2.3-5.2-4.1l-.1-1.2c.3-1.1.7-2.8 1.1-4.5.2 0 .4 0 .6-.1 5.5-.8 5.5-4.2 5.1-4.5-.4-.3-1.3-1.6-.6-2.2.6-.6 2.4-2.3 2.4-3.8 3-2.1 7.3-3.9 13.7-3.3 0 0 1.1.9 2.3 1.5 1.1.5 1.1 1.9.3 2.2z"/><path class="st1" d="M21.5 28.5c-.3.2-.5.5-.5.7-.3 1.2 0 4.6 0 4.6s-.2 0-.6-.1c-.4 0-.9-.1-1.5-.1-.1-1.9-.7-4.5-2.4-7.4-1.5-2.2-1.5-4.4-1.3-5.6.1-.7.2-1.1.2-1.1.1.9 2.1 3.5 3 4.5 1 1 3.1 4.5 3.1 4.5z"/><path class="st2" d="M19.5 46.7s-1.2 2.9-2.8 6.1c-1.6.7-3.9 1.6-4.9 1.5-1.6-.1-3.7-.4-3.2-3.7.4-3.4 3.4-4.6 3-7-.4-2.6-2.1-8.6-2.1-8.6s-3.7-8.1 5.7-14.4c-.2 1.2-.2 3.4 1.2 5.7 1.7 2.8 2.3 5.5 2.4 7.4-1.6 0-3.4.3-3.8 1.8-.7 2.6 4.5 11.2 4.5 11.2z"/><path class="st3" d="M15.6 48.8s2.5-1.5 3.3-3M14.7 32.8s.9.2 1.4 1.3M15.1 29.4s2.1 2.4 2.4 4.4M60.4 51.9s4.1-1.2 7.4.6M59.5 51.3s-2.8-1.6 10.8-2.4M26.7 61.7s.4 3.4 3.5 4.9M25.4 57.7s3.9 8.6 13.9 8.8M39.3 19.5s2.8 5.2 8.5 7.6M34 22.2s7 5.9 16.6 7.5M30.3 25.8s12.8 1.9 20.7 9.1M37.7 48.3l.3.1c6.7 3.1 10.3 4.7 13.3 3.1s4-3.5 4-3.5M24 45c-.8-.1-1.2-.1-1.2-.1v-6.9M53.5 47.2s1.7-.1 3.4 2.4M18.3 37.1s4.9.5 6.3 1.8M24 45"/><path class="st4" d="M30.3 50.7c-.1 1.1-1.2 1.4-3.1 1.4-1.9.1-1.1-7-1.1-7 .7.1 1.6.2 2.5.4.3 0 .5.1.8.2.3 1.1.8 3.4.9 4.6v.4z"/><path class="st5" d="M37.7 48.3c-1.5-.7-3.2-1.2-4.7-1.7-1.3-.4-2.5-.6-3.6-.9l-.8-.2c-.9-.2-1.7-.3-2.5-.4-.8 0-1.6-.1-2.1-.1.1 0 1.1-.2 2.4-.3.7-.1 1.4-.1 2.2-.1h.3c.8 0 1.6.2 2.3.4l1.6.6c2 .6 3.9 1.1 4.9 2.7z"/><path class="st4" d="M33 46.7c-.1 1-.4 2.8-1 3.4-.5.5-1.2.4-1.7.3-.1-1.1-.6-3.4-.9-4.6 1.1.2 2.3.5 3.6.9z"/><path class="st3" d="M37.7 32.9s-1.2 1-1.1 2.6M39.9 31.9s-2.3 1.6-1.7 5.2M32.4 41.3s1.7 3.3 3.3 2.6c1.6-.8 4.3-3 4.7-1.8"/><path class="st2" d="M30 37.8c-.9.5-2 1-2.9.6-1.2-.5-1.8-2.6-2.1-3.8.3 0 .7.1 1.2.1.2 1.1 1 2.7 2.9 3 .3.1.6.1.9.1zM52.1 44c-1.5 1.1-5.8 2.1-8 .2-1.8-1.6-2.2-4.4-2.3-5.6l1 .4c.4.2.8.3 1.3.5 1.1.5 2.2 1 3.3 1.6 1.2.6 2.3 1.3 3.5 2 .3.3.8.6 1.2.9z"/><path class="st4" d="M34.6 36.3c-.9.5-2.7 1.5-4.6 1.5-.3 0-.6 0-.9-.1-1.9-.3-2.7-1.9-2.9-3 .5.1 1.1.1 1.7.2.7.1 1.5.2 2.4.4.9.2 1.9.4 3 .6.4.2.9.3 1.3.4z"/><path class="st3" d="M41.8 38.6c-2.5-1-5-1.7-7.2-2.3M52.7 44.4l-.6-.5M24 34.5s.4 0 1 .1"/><path d="M33.3 36c-.2.5-.6 1-1.5 1.1-1.3.2-1.5-1-1.4-1.7.9.1 1.8.3 2.9.6z"/><path class="st3" d="M31.8 42s-2.2-.9-.6-2.7c1.6-1.8 3.4-.8 3.4-.8s-1.2.5-1.1 1M38.2 40.9s2.1-2.4 2.8-1c.7 1.4.5 4.6-.4 4.3l-1.4-1"/><path class="st3" d="M37.2 3.2l.3.1c-.2 0-.3-.1-.3-.1z"/><path class="st5" d="M65.2 20.1s1.2 2.4 1.3 3.3c0 0-.9-.5-1.8-.9-.1-.7-.2-1.1-.2-1.1s-9.3-7.9-18.1-8.2c0 0-5.2-4.2-13.1-3.9 0 0-.2.3-.6 1-1.2-.3-2.8-.7-2.4-1.3.7-.9 2.3-1 2.3-1l-2-.7s.7-1 1.8-.9c1 .1-1.5-1.2-1.5-1.2s3.9-.2 4.8.3c0 0-.3-1.1-.8-1.1s2.3 0 2.8.3c0 0 .4-1.1-.2-1.5 1 .3 4.1 1.5 4.6 2.4 0 0 0-1 .2-1.3 0 0 2.5 2.1 2.8 2.8l-1-3.7s2.4.9 3.7 4.3l.9-3.2s.7 1 .8 3.6c0 0 1.3-2.3 1.9-2.6l-1 4.8s3.2-3.4 4.4-3.6l-1.8 3.6 6-.6s-.2.7-1.4 1.2c0 0 2.6.3 2.8.7l-4.1 1.9s6.2.7 7.5 1.6l-2.1.6s5.3 3 5.2 5l-1.7-.6z"/><path class="st4" d="M50.8 43.1c-.7.7-1.9 1.2-4.3.5-3.7-1.1-3.8-3.5-3.7-4.6.4.2.8.3 1.3.5 1.1.5 2.2 1 3.3 1.6 1.1.6 2.3 1.3 3.4 2z"/><path d="M47.3 41.1c-.5.6-1.2 1.1-2.2.8-1.3-.4-1.3-1.6-1.1-2.4 1.2.5 2.3 1 3.3 1.6z"/></svg>
